X: 9
T: Humours Of Ballymanus, The
Z: NylonFlute
S: https://thesession.org/tunes/279#setting49147
R: slip jig
M: 9/8
L: 1/8
K: Dmaj
|:ABA AGF AGF|ABA AGF BcD'|ABA AGF AGF BB/B/B B2 A Bcd:|
|:dfa afd cBA|dfa afd fga|dfa afd cBA|BB/B/B B2 A Bcd:|

%-------------------- TUNE SEPARATOR --------------------%

